X:1
T: The Sailor at the Bow
C:
R:Jig
Q:180
K:D
M:6/8
L:1/16
|:d2|A2F2D2 D2E2F2|G2B2G2 F4D2|G2B2G2 A2F2D2|C2E2E2 E4d2|
A2F2D2 D2E2F2|G2B2G2 F4D2|F2G2A2 B2c2d2|A2F2D2 D4g2|
f2d2f2 e2c2e2|d2A2G2 F4D2|G2B2G2 A2F2D2|C2E2E2 E4g2|
f2d2f2 e2c2e2|d2A2G2 F4D2|F2G2A2 B2c2d2|A2F2D2 D4:|
